X: 1927
T: A Thousand Pipers
B: australian traditional tunes wiki
M:6/8
L:1/8
R: Jig
Q: 3/8=100
K:D
V:1 
A|:"D"BAF DFA|"Bm"BBBB2A|"D"BAF DFD|"A7"FEEE2A|"D"BAF DFA|"Bm"BBBB2A|"A7"Ace aec|1"D"d3d2A:|2"D"d3d2e||
|:"D"f3fef|"A7"aeee2e|Ace Ace|"D"fdd d2e|ded fef|"A7"aeee2f/g/|a2a ABc|1"D"d3d2e:|2"D"d3d2||
% abcbook-tune_id 6342d5beec3d3435df47f294


% abcbook-boost 0
% abcbook-tablature 
% abcbook-transpose 
% abcbook-lastupdated 1665324488366
% abcbook-soundfonts 
% abcbook-repeats 1
% NFF Book 2017

